X: 2105
T: The Hills Of Glenorchy
B: nick
B: to learn
M:6/8
Q: 3/8=100
K:Adorian
V:1 
efe ABA|ede gfe|ded G2G|BGB dgf|
 efe ABA|ede gab|age dBG|1 . ABA ABd:|2 . ABA efg||
 a3 age|agb age|g3 ged|gfg bag|
 a3 age|agb age|gfg dBG|1 . ABA efg:|2 . ABA ABd||
% abcbook-tune_id 634561562c46b98d1a1d1935


% abcbook-boost 0
% abcbook-tablature 
% abcbook-transpose 
% abcbook-lastupdated 1666006258894
% abcbook-soundfonts 
% abcbook-repeats 3


